X: 12116
T: Evening
R: waltz
M: 3/4
K: Eminor
|:"Em"B>cB "C"e>dc|"G"B>cB "D"(3A/B/A/GF|"G"B>cB "Em"g>fe|"D"f>ed "G"B2"D"((3F/G/A/|
"Em"B)>cB "C"e>dc|"G"B>cB "D"(3A/B/A/GF|"G"B>AG "Em"E2E|1 "G"G>FD B,2B:|2 "G"G>FD "Em"E2 F||
|:"G"(G/A/)(B/c/)d d2 g|"D"ff"C"e "G"B2B/A/|G>AB "Bm"d2 c|"C"c/B/-BG "D"A2 B/A/|
"G"G>AB "Em"g>fe|"D"f>ed "C"e2d/c/|"G"B>cB "D"(3A/B/A/GF|1 "Em"E3- E2"D"F:|2 "Em"E3- "D"F2 F||

